X: 100785
T: Jenny's Welcome to Charlie
S: "Music of Ireland - The Big Session" (DJ Taylor)
Z: B.Black
L: 1/8
M: 4/4
R: reel
K: Ddor
D3 A AGED|E2 cE dEcE|D3 A AGEF|GEcE EDCE|
D3 A AGED|E2 cE dEcd|ecdc AGEF|(3GFE cE ED D2 :|
ff f2 e2 ed|cAGc Acde|fedf edcd|eaag e2 de|
fgaf efge|dcA^F GAcd|ecdc AGEF|(3GFE cE ED D2 :|
ea a2 age^f|g3 a gedg|eaag ageg|eaag ed d2|
ea a2 age^f|g3 a ged^c|AB^cd edcA|GEcE ED D2 :|
Ad d2 defd|ec c2 (3ABc Ac|Ad d2 fd d2|eaag eddc|
d2 ed edA=B|c3 d cAGE|GAcd ecdc|(3AcA GE EDGE :|
